!!!COM: Scarlatti, Domenico
!!!CDT: 1685///-1757///
!!!OTL: Sonata in F Major, K.188, L.525
!!!SCT: K. 188
!!!SCT: L. 525
!!!OMD: Allegro
**kern	**kern	**dynam
*staff2	*staff1	*staff1/2
*Icemba	*Icemba	*Icemba
*>[A,A,B,B]	*>[A,A,B,B]	*>[A,A,B,B]
*>norep[A,B]	*>norep[A,B]	*>norep[A,B]
*>A	*>A	*>A
*clefF4	*clefG2	*clefG2
*k[b-]	*k[b-]	*k[b-]
*F:	*F:	*F:
*M6/8	*M6/8	*M6/8
*MM198	*MM198	*MM198
=1-	=1-	=1-
4r	2.r	.
(8c\	.	.
8f'\L)	.	.
8f'\	.	.
8e'\J	.	.
=2	=2	=2
8d'\L	2.r	.
8d'\	.	.
8c'\J	.	.
8B-'\L	.	.
8A'\	.	.
8B-'\J	.	.
=3	=3	=3
8c'\L	4r	.
8d'\	.	.
(8e\J	(8cc\	p
4.f\	8ff'\L)	p
.	8ff'\	.
.	8ee'\J	.
=4	=4	=4
4.B-\	8dd'\L	.
.	8dd'\	.
.	8cc'\J	.
4.d\	8b-'\L	.
.	8a'\	.
.	8b-'\J	.
=5	=5	=5
4c\)	4.cc\	f
*clefG2	*	*
(8c/	.	.
8b-'/L)	4r	.
8b-'/	.	.
8a'/J	8cc\	f
=6	=6	=6
8g'/L	8bb-'\L	p
8g/	8bb-'\	.
8f/J	8aa'\J	.
8b-'/L	8gg'\L	.
8b-'/	8gg'\	.
8a'/J	8ff'\J	.
=7	=7	=7
8g'/L	8ee'\L	.
8g'/	8ee'\	.
8f'/J	8dd'\J	.
8e'/L	8cc'\L	.
8c'/	8cc'\	.
8e'/J	8g'\ 8b-'\J	.
=8	=8	=8
4f'/	8a'/L	.
.	8g'/ 8b-'/	.
*clefF4	*	*
8A'\	8a'/ 8cc'/J	.
4B-\	8g'/ 8b-'/L	.
.	8f'/ 8a'/	.
8c'\	8e'/ 8g'/J	.
=9	=9	=9
4F\	4f^/	f
8C/	8r	.
8F'\L	4r	.
8F'\	.	.
8E'\J	(8c/	f
=10	=10	=10
4A\	8f'/L)	p
.	8f'/	.
8G'\	8e'/J	.
4F\	8a'/L	.
.	8a'/	.
8C'/	8g'/ 8cc'/J	.
=11	=11	=11
4A\	8f'\ 8ff'\L	.
.	8ff'\	.
8G'\	8ee'\J	.
4F\	8aa'\L	.
.	8aa'\	.
8C'/	8gg'\J	.
=12	=12	=12
4.FF^/ 4.F^/	8ff'\L	f
.	8ff'\ 8aa'\	.
.	8ee'\ 8gg'\J	.
4.GG^/ 4.G^/	8dd'\ 8ff'\L	.
.	8cc'\ 8ee'\	.
.	8bn'\ 8dd'\J	.
=13	=13	=13
4CC^/ 4C^/	4.cc^\ 4.ee^\	.
8GG/	.	.
8C'/L	4r	p
8C'/	.	.
8BBn'/J	(8G/	f
=14	=14	=14
4E\	8c'/L)	p
.	8c'/	<
8D'\	8Bn'/J	(
4C/	8e'/L	(
.	8e'/	(
8GG'/	8d'/ 8g'/J	(
=15	=15	=15
4E\	8c'/ 8cc'/L	(
.	8cc'/	(
8D'\	8bn'/J	(
4C/	8ee\L	(
.	8ee'\	(
8GG'/	8dd'\ 8gg'\J	[
=16	=16	=16
4E\	8cc'\ 8ccc'\L	f
.	8ccc'\	.
8C'/	8bbn'\J	.
4F\	8aa'\L	.
.	8aa'\	.
8G'\	8gg'\J	.
=17	=17	=17
4A\	8ff'\L	.
.	8ee'\	.
8Bn'\	8dd'\J	.
4A\ 4c\	(8cc\L	.
.	8bn\)	.
8AA'/	8cc'\ 8ff#'\J	.
=18	=18	=18
*^	*^	*
4r	4GG^/	4bn^\ 4gg^\	4.r	.
(8g/	[8G^\	[8gg^\	.	.
4f/	4.G\_	8b'\L	4.gg/_	.
.	.	8b'\	.	.
8e/	.	8cc'\J	.	.
=19	=19	=19	=19	=19
4d/	2.G\]	2.gg/]	8dd\L	.
.	.	.	8dd'\	.
8c/	.	.	8ee'\J	.
4Bn/	.	.	8ff'\L	.
.	.	.	8ff\	.
8c/)	.	.	8ee'\J	.
=20	=20	=20	=20	=20
4r	4GGG^/ 4BBBn^/ 4DD^/ 4GG^/	4.r	4g^\ 4bn^\ 4dd^\ 4gg^\	.
(8g/	[8G^\	.	[8gg^\	.
4f/	4.G\_	4.gg/_	8b'\L	.
.	.	.	8b'\	.
8e/	.	.	8cc'\J	.
=21	=21	=21	=21	=21
4d/	2.G\]	2.gg/]	8dd\L	.
.	.	.	8dd'\	.
8c/	.	.	8ee'\J	.
4Bn/	.	.	8ff\L	.
.	.	.	8ff'\	.
8c/)	.	.	8ee'\J	.
*v	*v	*	*	*
*	*v	*v	*
=22	=22	=22
4GGG^/ 4BBB-^/ 4DD^/ 4GG^/	4g^\ 4bn^\ 4dd^\ 4gg^\	.
8e'\	8ccc'\	.
4f\	(8ccc\L	.
.	8dd\)	.
8a'\	8aa'\J	.
=23	=23	=23
4g\	(8aa\L	.
.	8bn\)	.
8e'\	8ee'\ 8gg'\J	.
4f\	8dd'\ 8ff'\L	.
.	8cc'\ 8ee'\	.
8g'\	8b'\ 8dd'\J	.
=24	=24	=24
*^	*^	*
4r	4c\	4.r	4cc^\ 4ee^\	.
(8g/	8G^\	.	[8gg^\	.
4f/	[4.G\	4.gg/_	8bn'\L	.
.	.	.	8b'\	.
8e/	.	.	8cc'\J	.
=25	=25	=25	=25	=25
4d/	2.G\]	2.gg/]	8dd'\L	.
.	.	.	8dd'\	.
8c/	.	.	8ee'\J	.
4Bn/	.	.	8ff'\L	.
.	.	.	8ff'\	.
8c/)	.	.	8ee'\J	.
=26	=26	=26	=26	=26
4r	4GGG^/ 4BBBn^/ 4DD^/ 4GG^/	4.r	4g\ 4bn\ 4dd\ 4gg\	.
(8g/	[8G^\	.	[8gg^\	.
4f/	4.G\_	4.gg/_	8b'\L	.
.	.	.	8b'\	.
8e/	.	.	8cc\J	.
=27	=27	=27	=27	=27
4d/	2.G\]	2.gg/]	8dd'\L	.
.	.	.	8dd'\	.
8c/	.	.	8ee'\J	.
4Bn/	.	.	8ff\L	.
.	.	.	8ff'\	.
8c/)	.	.	8ee'\J	.
*v	*v	*	*	*
*	*v	*v	*
=28	=28	=28
4GGG/ 4BBBn/ 4DD/ 4GG/	4g^\ 4bn^\ 4dd^\ 4gg^\	.
8e'\	8ccc'\	.
4f\	(8ccc\L	.
.	8dd\)	.
8a'\	8aa'\J	.
=29	=29	=29
4g\	(8aa\L	.
.	8bn\	.
8e'\	8ee'\) 8gg'\J	.
4f\	8dd'\ 8ff'\L	.
.	8cc'\ 8ee'\	.
8g'\	8b'\ 8dd'\J	.
=30	=30	=30
4c\	4cc^\	.
8E'\	8cc'\	.
4F\	(8cc/L	.
.	8d/)	.
8A'\	(8a'/J	.
=31	=31	=31
4G\	8a/L	.
.	8Bn/)	.
8E'\	8e'/ 8g'/J	.
4F\	8d'/ 8f'/L	.
.	8c'/ 8e'/	.
8G'\	8B'/ 8d'/J	.
=32	=32	=32
2.CC^/ 2.C^/	2.c^/	.
=33:|!|:	=33:|!|:	=33:|!|:
*>B	*>B	*>B
4.AA\ 4.E\ 4.A\	8a'\ 8cc#'\ 8ee'\ 8gg'\L	f
.	8a'\	.
.	8dd\ 8ff\J	.
*clefG2	*	*
8a'/	8cc#\ (8ee\L	.
8r	8a\)	.
8r	8bn'\ 8dd'\J	.
*clefF4	*	*
=34	=34	=34
*	*^	*
8g'\L	4a/ (4cc#/	2.a\	.
8A'\	.	.	.
8f'\J	8bn/ 8dd/	.	.
8e'\L	4cc#/ 4ee/	.	.
8A'\	.	.	.
8d'\J	8dd/ 8ff/)	.	.
=35	=35	=35	=35
(8c#\L	4ee/ (4gg/	4.a\	.
8A\	.	.	.
8d\J)	8dd/ 8ff/)	.	.
8G'\L	8ff'/L	4.b-\	.
8A'\	8ee'/	.	.
8B-'\J	8dd'/J	.	.
=36	=36	=36	=36
(8A\L	4cc#/ (4ee/	4.a\	.
8G\)	.	.	.
8F'\J	8dd/ 8ff/)	.	.
8G'\L	8ff'/L)	4.b-\	.
8A'\	8ee'/	.	.
8B-'\J	8dd'/J	.	.
=37	=37	=37	=37
(8A\L	4cc#/ (4ee/	4.a\	.
8G\)	.	.	.
8F'\J	8dd/ 8ff/)	.	.
8G'\L	8ff'/L)	4.b-\	.
8A'\	8ee'/	.	.
8B-'\J	8dd'/J	.	.
=38	=38	=38	=38
(4.A\	(4dd/	4.a\	.
.	8ee/)	.	.
4AA/)	4r	4r	.
8r	8r	8r	.
*	*v	*v	*
=39	=39	=39
4.BBB-^/	8b-'\ 8dd'\ 8ff'\ 8aa-'\L	.
.	8b-'\	.
.	8ee-'\ 8gg'\J	.
*clefG2	*	*
8b-'\	8dd\ (8ff\L	.
8r	8b-\)	.
8r	8cc'\ 8ee-'\J	.
*clefF4	*	*
=40	=40	=40
*	*^	*
8a-'\L	4b-/ (4dd/	2.b-\	.
8B-'\	.	.	.
8g'\J	8cc/ 8ee-/	.	.
8f'\L	4dd/ 4ff/	.	.
8B-'\	.	.	.
8e-'\J	8ee-/ 8gg/)	.	.
=41	=41	=41	=41
(8d\L	4ff/ (4aa-/	4.b-\	.
8B-\	.	.	.
8e-\J)	8ee-/ 8gg/)	.	.
8A-'\L	8gg'/L)	4.cc\	.
8B-'\	8ff'/	.	.
8c'\J	8ee-'/J	.	.
=42	=42	=42	=42
(8B-\L	4.r	4dd\ (4ff\	.
8A-\)	.	.	.
8G'\J	.	8ee-\ 8gg\)	.
8A-'\L	8gg'/L	4.cc\	.
8B-'\	8ff'/	.	.
8c'\J	8ee-'/J	.	.
=43	=43	=43	=43
(8B-\L	4.r	4dd\ (4ff\	.
8A-\)	.	.	.
8G'\J	.	8ee-\ 8gg\)	.
8A-'\L	8gg'/L)	4.cc\	.
8B-'\	8ff'/	.	.
8c'\J	8ee-'/J	.	.
*	*v	*v	*
=44	=44	=44
4B-\	4.dd\ 4.ff\	f
8BB-/	.	.
8E-\L	4r	.
8E-'\	.	.
8D'\J	(8B-/	f
=45	=45	=45
4G\	8e-'/L)	p
.	8e-'/	.
8F'\	8d'/J	.
4E-\	8g'/L	.
.	8g'/	.
8D'\	8f#'/J	.
=46	=46	=46
4G\	8b-'\L	.
.	8b-'\	.
8F'\	8a'\J	.
4F\ 4f\	8dd'\L	.
.	8dd'\	.
8en'\	8cc#'\J	.
=47	=47	=47
4d\	8ff'\L	f
.	8ff'\	.
8c'\	8ee'\J	.
4c\	8aa'\L	.
.	8aa'\	.
8Bn'\	8gg#'\J	.
=48	=48	=48
4A\	8ccc'\L	.
.	8ccc'\	.
8Bn'\	8bbn'\J	.
4c\	8aa'\L	.
.	8aa'\	.
8A'\	8ggn'\J	.
=49	=49	=49
*^	*	*
2.d/	(4D\	8ff'\L	.
.	.	8ee'\	.
.	8E\)	8dd'\J	.
.	4.F^\ 4.A^\ 4.Bn^\	8cc'\L	.
.	.	8bn'\	.
.	.	8a\J	.
*v	*v	*	*
=50	=50	=50
4E\ 4Bn\	4.e/ 4.bn/	f
8E\	.	.
8A'\L	4r	.
8A'\	.	.
8G#'\J	(8e/	f
=51	=51	=51
4c\	8a'/L)	p
.	8a'/	.
8Bn'\	8g#'/J	.
4A\	8cc'\L	.
.	8cc'\	.
8Gn'\	8bn'\J	.
=52	=52	=52
4c\	8ee'\L	.
.	8ee'\	.
8B-'\	8dd'\J	.
4B-\	8ggn'\L	.
.	8gg'\	.
8A'\	8ff#'\J	.
=53	=53	=53
4g\	8bb-'\L	.
.	8bb-'\	.
8f'\	8aa'\J	.
4f\	8ddd'\L	.
.	8ddd'\	.
8e'\	8ccc#'\J	.
=54	=54	=54
*^	*	*
2.d/	(4D\	8fff'\L	f
.	.	8fff'\	.
.	8E\	8eee'\J	.
.	4F\	8ddd'\L	.
.	.	8ddd'\	.
.	8D\	8cccn'\J	.
=55	=55	=55	=55
4.d/	8G\L	8bb-'\L	.
.	8F\	8aa'\	.
.	8E\J	8gg'\J	.
4.r	4D\)	8ff\L	.
.	.	8ee\	.
.	8D'\	8ff\ 8bbn\J	.
=56	=56	=56	=56
(8C/L	2.C^\	8gg\ (8ccc\L	.
8c/)	.	8cc\)	.
8B-'/J	.	8ee'\J	.
8A'/L	.	(8ff\L	.
8G'/	.	8gg\)	.
8F'/J	.	8aa'\J	.
=57	=57	=57	=57
(8C/L	2.C^\	(8gg\L	.
8c/	.	8cc\)	.
8B-'/J)	.	8ee'\J	.
8A'/L	.	(8ff\L	.
8G'/	.	8gg\)	.
8F'/J	.	8aa'\J	.
=58	=58	=58	=58
*	*	*^	*
4C^/	4r	4.r	4gg^\	.
*v	*v	*	*	*
*clefG2	*	*	*
*^	*	*	*
(8cc/	[8c^\	.	([8ccc^\	.
4b-/	4.c\_	4.ccc/_	8ee'\L)	.
.	.	.	8ee'\	.
8a/	.	.	8ff'\J	.
=59	=59	=59	=59	=59
4g/	2.c\]	2.ccc/]	8gg'\L	.
.	.	.	8gg'\	.
8f/	.	.	8aa'\J	.
4e/	.	.	8bb-'\L	.
.	.	.	8bb-'\	.
8f/)	.	.	8aa'\J	.
*v	*v	*	*	*
*clefF4	*	*	*
=60	=60	=60	=60
*^	*	*	*
4CC/ 4EE/ 4GG/ 4C/	4r	4.r	4cc^\ 4ee^\ 4gg^\ 4ccc^\	.
*v	*v	*	*	*
*clefG2	*	*	*
*^	*	*	*
(8cc/	[8c^\	.	([8ccc^\	.
4b-/	4.c\_	4.ccc/_	8ee'\L)	.
.	.	.	8ee'\	.
8a/	.	.	8ff'\J	.
=61	=61	=61	=61	=61
4g/	2.c\]	2.ccc/]	8gg'\L	.
.	.	.	8gg'\	.
8f/	.	.	8aa'\J	.
4e/	.	.	8bb-'\L	.
.	.	.	8bb-'\	.
8f/)	.	.	8aa'\J	.
*v	*v	*	*	*
*clefF4	*	*	*
*	*v	*v	*
=62	=62	=62
4CC^/ 4EE^/ 4GG^/ 4C^/	4cc^\ 4ee^\ 4gg^\ 4ccc^\	.
*clefG2	*	*
8a'/	8fff'\	.
4b-\	(8fff\L	.
.	8gg\)	.
8dd'\	8ddd'\J	.
=63	=63	=63
4cc\	(8ddd\L	.
.	8ee\)	.
8a'/	8aa'\ 8ccc'\J	.
4b-\	8gg'\ 8bb-'\L	.
.	8ff'\ 8aa'\	.
8cc'\	8ee'\ 8gg'\J	.
=64	=64	=64
*^	*^	*
4f^/	4r	4.r	4ff^\ 4aa^\	.
(8cc/	[8c\	.	([8ccc^\	.
4b-/	4.c\_	4.ccc/_	8ee\L)	.
.	.	.	8ee'\	.
8a/	.	.	8ff'\J	.
=65	=65	=65	=65	=65
4g/	2.c\]	2.ccc/]	8gg'\L	.
.	.	.	8gg'\	.
8f/	.	.	8aa'\J	.
4e/	.	.	8bb-'\L	.
.	.	.	8bb-'\	.
8f/)	.	.	8aa'\J	.
*v	*v	*	*	*
*clefF4	*	*	*
=66	=66	=66	=66
*^	*	*	*
4CC^/ 4EE^/ 4GG^/ 4C^/	4r	4.r	4cc^\ 4ee^\ 4gg^\ 4ccc^\	.
*v	*v	*	*	*
*clefG2	*	*	*
*^	*	*	*
(8cc/	[8c\	.	[8ccc^\	.
4b-/	4.c\_	4.ccc/_	8ee'\L	.
.	.	.	8ee'\	.
8a/	.	.	8ff'\J	.
=67	=67	=67	=67	=67
4g/	2.c\]	2.ccc/]	8gg'\L	.
.	.	.	8gg'\	.
8f/	.	.	8aa'\J	.
4e/	.	.	8bb-'\L	.
.	.	.	8bb-'\	.
8f/)	.	.	8aa'\J	.
*v	*v	*	*	*
*clefF4	*	*	*
*	*v	*v	*
=68	=68	=68
4CC^/ 4EE^/ 4GG^/ 4C^/	4cc^\ 4ee^\ 4gg^\ 4ccc^\	.
*clefG2	*	*
8a'/	8fff'\	.
4b-\	(8fff\L	.
.	8gg\	.
8dd'\	8ddd'\J)	.
=69	=69	=69
4cc\	(8ddd\L	.
.	8ee\)	.
8a'/	8aa'\ 8ccc'\J	.
4b-\	8gg'\ 8bb-'\L	.
.	8ff'\ 8aa'\	.
8cc'\	8ee'\ 8gg'\J	.
=70	=70	=70
4f^/	4ff^\	.
*clefF4	*	*
8A'\	8ff'\	.
4B-\	8ff\L	.
.	8g\	.
8d'\	(8dd'\J	.
=71	=71	=71
4c\	8dd/L	.
.	8e/)	.
8A'\	8a'/ 8cc'/J	.
4B-\	8g'/ 8b-'/L	.
.	8f'/ 8a'/	.
8c'\	8e'/ 8g'/J	.
=72	=72	=72
*	*^	*
4FF/ 4F/	8a'/	4.f\	.
.	(4cc/	.	p
8CC'/ 8C'/	.	.	.
4FF/ 4F/	8a/	4.f\	.
.	(4cc/)	.	.
8CC'/ 8C'/	.	.	.
=73	=73	=73	=73
4FF/ 4F/	8a/	4.f\	.
.	(4cc/)	.	.
8CC'/ 8C'/	.	.	.
4FF/ 4F/	4.r	8f/ 8a/)	.
.	.	4g^\ 4ee^\	.
8CC'/ 8C'/	.	.	.
*	*v	*v	*
=74	=74	=74
2.FF^/ 2.F^/	2.f^\ 2.ff^\	f
==:|!	==:|!	==:|!
*-	*-	*-
!!!ENC: Craig Stuart Sapp
!!!END: 2005/06/29/
